Communication/albums.svg

<svg xmlns="http://www.w3.org/2000/svg" viewBox="0 0 24 24" style="enable-background:new 0 0 24 24" xml:space="preserve"><path d="M21.8 6.7H2.3C1.1 6.7.1 7.7.1 8.9v11.9C.1 22 1 23 2.3 23h19.5c1.2 0 2.2-1 2.2-2.2V8.9c0-1.2-1-2.2-2.2-2.2zM23 20.8c0 .7-.5 1.2-1.2 1.2H2.3c-.7 0-1.3-.5-1.3-1.2V8.9c0-.7.5-1.2 1.2-1.2h19.5c.7 0 1.2.5 1.2 1.2l.1 11.9zM5.3 2h13.4c.3 0 .5-.2.5-.5S19 1 18.7 1H5.3c-.3 0-.5.2-.5.5s.2.5.5.5zM3.4 4.8h17.2c.3 0 .5-.2.5-.5s-.1-.5-.4-.5H3.4c-.3 0-.5.2-.5.5s.2.5.5.5z" style="fill:#263238"/></svg>

<?xml version="1.0" encoding="utf-8"?>
<!-- Generator: Adobe Illustrator 25.4.1, SVG Export Plug-In . SVG Version: 6.00 Build 0)  -->
<svg version="1.1" id="Capa_1" xmlns="http://www.w3.org/2000/svg" xmlns:xlink="http://www.w3.org/1999/xlink" x="0px" y="0px"
	 viewBox="0 0 24 24" style="enable-background:new 0 0 24 24;" xml:space="preserve">
<style type="text/css">
	.st0{fill:#263238;}
</style>
<g>
	<path class="st0" d="M21.8,6.7H2.3c-1.2,0-2.2,1-2.2,2.2v11.9C0.1,22,1,23,2.3,23h19.5c1.2,0,2.2-1,2.2-2.2V8.9
		C24,7.7,23,6.7,21.8,6.7z M23,20.8c0,0.7-0.5,1.2-1.2,1.2H2.3C1.6,22,1,21.5,1,20.8V8.9c0-0.7,0.5-1.2,1.2-1.2h19.5
		c0.7,0,1.2,0.5,1.2,1.2L23,20.8L23,20.8z"/>
	<path class="st0" d="M5.3,2h13.4c0.3,0,0.5-0.2,0.5-0.5S19,1,18.7,1H5.3C5,1,4.8,1.2,4.8,1.5S5,2,5.3,2z"/>
	<path class="st0" d="M3.4,4.8h17.2c0.3,0,0.5-0.2,0.5-0.5S21,3.8,20.7,3.8H3.4C3.1,3.8,2.9,4,2.9,4.3S3.1,4.8,3.4,4.8z"/>
</g>
</svg>
